X: 627
T: Across The Rooftops
R: reel
M: 4/4
K: Gmajor
|B3d GA A2|GDEG AGEG|B2dB GA A2|Bged BAGA|
B3d GA A2|GDEG AGEG|B2dB GA A2|Bged e3f||
gedg de e2|edBd de e2|gedg de e2|(3Bcd eg a3g|
gedg de e2|edBd ed g2|gedg e2dB|GEDE G3d||

